SharedPackages/Infrastructure/DesignResourcesKitIcons/Sources/DesignResourcesKitIcons/DesignSystemImages.xcassets/Color/16px/Folder-Color-16.imageset/Folder-Color-16.svg

<svg width="16" height="16" viewBox="0 0 16 16" fill="none" xmlns="http://www.w3.org/2000/svg">
<path d="M6 1.5H4C2.067 1.5 0.5 3.067 0.5 5V11C0.5 12.933 2.067 14.5 4 14.5H12C13.933 14.5 15.5 12.933 15.5 11V7C15.5 5.067 13.933 3.5 12 3.5H10C9.21311 3.5 8.47214 3.12951 8 2.5C7.52786 1.87049 6.78689 1.5 6 1.5Z" fill="#A1D0F7"/>
<path d="M6 1.5H4C2.067 1.5 0.5 3.067 0.5 5V6.5H15.5L13.5 3.5H10C9.21311 3.5 8.47214 3.12951 8 2.5C7.52786 1.87049 6.78689 1.5 6 1.5Z" fill="#4397E0"/>
<path d="M6 1C6.94427 1 7.83334 1.44478 8.3999 2.2002C8.77761 2.70376 9.37052 3 10 3H12C14.2091 3 16 4.79086 16 7V11C16 13.2091 14.2091 15 12 15H4C1.79086 15 9.66384e-08 13.2091 0 11V5C9.66416e-08 2.79086 1.79086 1 4 1H6ZM1 7V11C1 12.6569 2.34315 14 4 14H12C13.6569 14 15 12.6569 15 11V7H1ZM4 2C2.34315 2 1 3.34315 1 5V6H14.8286C14.4167 4.83492 13.3061 4 12 4H10C9.05573 4 8.16666 3.55522 7.6001 2.7998C7.22239 2.29624 6.62948 2 6 2H4Z" fill="#045EB2"/>
</svg>

<svg fill="none" viewBox="0 0 16 16" xmlns="http://www.w3.org/2000/svg">
  <path fill="#8FABF9" d="M6 1.5H4A3.5 3.5 0 0 0 .5 5v6A3.5 3.5 0 0 0 4 14.5h8a3.5 3.5 0 0 0 3.5-3.5V7A3.5 3.5 0 0 0 12 3.5h-2a2.5 2.5 0 0 1-2-1 2.5 2.5 0 0 0-2-1Z"/>
  <path fill="#7295F6" d="M6 1.5H4A3.5 3.5 0 0 0 .5 5v1.5h15l-2-3H10a2.5 2.5 0 0 1-2-1 2.5 2.5 0 0 0-2-1Z"/>
  <path fill="url(#Folder-Color-16_svg__a)" d="M6 1a3 3 0 0 1 2.4 1.2A2 2 0 0 0 10 3h2a4 4 0 0 1 4 4v4a4 4 0 0 1-4 4H4a4 4 0 0 1-4-4V5a4 4 0 0 1 4-4h2ZM1 7v4a3 3 0 0 0 3 3h8a3 3 0 0 0 3-3V7H1Zm3-5a3 3 0 0 0-3 3v1h13.829A3 3 0 0 0 12 4h-2a3 3 0 0 1-2.4-1.2A2 2 0 0 0 6 2H4Z"/>
  <defs>
    <linearGradient id="Folder-Color-16_svg__a" x1="8" x2="8" y1="1" y2="15" gradientUnits="userSpaceOnUse">
      <stop stop-color="#3969EF"/>
      <stop offset="1" stop-color="#1E42A4"/>
    </linearGradient>
  </defs>
</svg>
